X: 34629
T: Road To Ballisadare, The
R: hornpipe
M: 4/4
K: Dmajor
|:F>G|A2- A>B A>GF>G|a>df>d A>GF>G|(3ABA B>F A>FD>F|E>^DE>F (3EFE (3EFG|
(3AAA B>F A>GF>G|a>df>d A>GF>G|A>ce>f g>ec>e|(3ded c>e d2:|
|:c>d|e2- e>f g>ec>e|d>cd>e f>dA>f|(3gag f2 (3efe d2|(3cdc (3BcB B>AF>G|
A2 A>B A>GF>G|a>df>d A>GF>G|A2 (3def g>ec>e|(3ded c>e d2:|

